static/icons-fill/pollen-grass.svg

<svg viewBox="0 0 128 128" fill="none" xmlns="http://www.w3.org/2000/svg">
<g id="pollen-grass" clip-path="url(#clip0_2038_4185)">
<g id="Grass">
<path id="Vector" d="M69.8434 39.3379C70.5376 40.6341 71.074 42.5873 70.3737 45.2031C70.0067 46.5737 69.5795 48.055 69.1354 49.5898C68.6918 51.123 68.2314 52.7098 67.8014 54.2842C66.9431 57.427 66.1962 60.5515 65.9371 63.1484V63.1533C65.5245 67.6808 65.3354 86.1751 65.2965 90.5H61.8336C61.7747 88.5979 61.7411 82.428 62.2311 75.2666C62.7759 67.3042 63.9613 58.2041 66.4313 52.3828V52.3818C69.0586 46.1679 69.742 42.3025 69.7477 39.96C69.7484 39.6518 69.7364 39.3694 69.7164 39.1113C69.7591 39.1845 69.8017 39.2601 69.8434 39.3379Z" fill="url(#paint0_linear_2038_4185)" stroke="#16A34A" stroke-miterlimit="10" stroke-linecap="round"/>
<path id="Vector_2" d="M84.3495 61.8135C82.6529 62.712 80.5004 64.5097 78.0565 68.0176C75.6986 71.4035 74.429 76.1364 73.7899 80.4971C73.2009 84.516 73.1403 88.28 73.2831 90.5H69.83C69.9307 86.4622 70.652 76.9905 74.9022 69.3047L75.3134 68.5625H75.3036C77.9483 64.1484 81.0182 62.5168 83.4296 61.9756C83.7474 61.9043 84.0547 61.851 84.3495 61.8135Z" fill="url(#paint1_linear_2038_4185)" stroke="#16A34A" stroke-miterlimit="10" stroke-linecap="round"/>
<path id="Vector_3" d="M75.1437 51.1489C75.1991 51.6345 75.248 52.154 75.2823 52.7026C75.487 55.9696 75.2254 60.2397 73.422 64.4409L73.2423 64.8472C71.533 68.6247 70.5576 74.0656 69.9562 79.0737C69.3934 83.7606 69.1484 88.1551 68.9572 90.4985H65.5177C65.6427 88.3989 65.7933 84.484 66.3898 80.0894C67.0419 75.2843 68.2229 69.9801 70.4552 65.9497L70.4562 65.9487C73.1575 61.0449 74.3798 56.2926 74.9279 52.7671C75.0169 52.1942 75.0868 51.6529 75.1437 51.1489Z" fill="url(#paint2_linear_2038_4185)" stroke="#16A34A" stroke-miterlimit="10" stroke-linecap="round"/>
<path id="Vector_4" d="M44.8027 55.7207C46.3804 56.4533 47.7744 57.2749 49.0508 58.2334C51.363 59.9697 53.3135 62.1699 55.2754 65.1396L55.668 65.7441C56.6119 67.2358 57.5005 69.4022 58.3105 71.8809C59.1185 74.3534 59.8391 77.1064 60.4561 79.75C61.5502 84.4383 62.2968 88.6725 62.6523 90.498H58.2646C57.1812 84.1198 56.4972 77.6931 54.5303 71.3662L54.332 70.7412C52.0928 63.4931 48.5775 59.0405 45.6016 56.3965C45.3307 56.1558 45.0631 55.932 44.8027 55.7207Z" fill="url(#paint3_linear_2038_4185)" stroke="#16A34A" stroke-miterlimit="10" stroke-linecap="round"/>
<path id="Vector_5" d="M45.0802 71.4214C49.0783 73.4965 52.0206 77.0388 54.1349 80.6567C56.3662 84.4749 57.6466 88.3292 58.2638 90.4985H54.5919C53.9842 86.9737 52.8699 83.516 51.2697 80.1929L51.2667 80.186L51.2628 80.1782C49.82 77.4144 47.8749 74.7905 46.299 72.8638C45.8588 72.3256 45.4462 71.841 45.0802 71.4214Z" fill="url(#paint4_linear_2038_4185)" stroke="#16A34A" stroke-miterlimit="10" stroke-linecap="round"/>
</g>
<g id="Pollen">
<path id="Pollen 7" d="M90 47.5C91.3807 47.5 92.5 48.6193 92.5 50C92.5 51.3807 91.3807 52.5 90 52.5C88.6193 52.5 87.5 51.3807 87.5 50C87.5 48.6193 88.6193 47.5 90 47.5Z" fill="url(#paint5_linear_2038_4185)" stroke="#FACC15"><animateTransform attributeName="transform" type="translate" values="0 0;8 -4" dur="3s" begin="0s" repeatCount="indefinite" calcMode="spline" keySplines=".42 0 .58 1"/><animate attributeName="opacity" values="0;1;1;0" dur="3s" begin="0s" repeatCount="indefinite" keyTimes="0;0.2;0.8;1"/></path>
<path id="Pollen 6" d="M80 38.5C80.8284 38.5 81.5 39.1716 81.5 40C81.5 40.8284 80.8284 41.5 80 41.5C79.1716 41.5 78.5 40.8284 78.5 40C78.5 39.1716 79.1716 38.5 80 38.5Z" fill="url(#paint6_linear_2038_4185)" stroke="#FACC15" opacity="0"><animateTransform attributeName="transform" type="translate" values="0 0;8 -4" dur="3s" begin="0.35s" repeatCount="indefinite" calcMode="spline" keySplines=".42 0 .58 1"/><animate attributeName="opacity" values="0;1;1;0" dur="3s" begin="0.35s" repeatCount="indefinite" keyTimes="0;0.2;0.8;1"/></path>
<path id="Pollen 5" d="M74 44.5C75.933 44.5 77.5 46.067 77.5 48C77.5 49.933 75.933 51.5 74 51.5C72.067 51.5 70.5 49.933 70.5 48C70.5 46.067 72.067 44.5 74 44.5Z" fill="url(#paint7_linear_2038_4185)" stroke="#FACC15" opacity="0"><animateTransform attributeName="transform" type="translate" values="0 0;8 -4" dur="3s" begin="0.7s" repeatCount="indefinite" calcMode="spline" keySplines=".42 0 .58 1"/><animate attributeName="opacity" values="0;1;1;0" dur="3s" begin="0.7s" repeatCount="indefinite" keyTimes="0;0.2;0.8;1"/></path>
<path id="Pollen 4" d="M64 35.5C65.3807 35.5 66.5 36.6193 66.5 38C66.5 39.3807 65.3807 40.5 64 40.5C62.6193 40.5 61.5 39.3807 61.5 38C61.5 36.6193 62.6193 35.5 64 35.5Z" fill="url(#paint8_linear_2038_4185)" stroke="#FACC15" opacity="0"><animateTransform attributeName="transform" type="translate" values="0 0;8 -4" dur="3s" begin="1.0499999999999998s" repeatCount="indefinite" calcMode="spline" keySplines=".42 0 .58 1"/><animate attributeName="opacity" values="0;1;1;0" dur="3s" begin="1.0499999999999998s" repeatCount="indefinite" keyTimes="0;0.2;0.8;1"/></path>
<path id="Pollen 3" d="M54 44.5C55.933 44.5 57.5 46.067 57.5 48C57.5 49.933 55.933 51.5 54 51.5C52.067 51.5 50.5 49.933 50.5 48C50.5 46.067 52.067 44.5 54 44.5Z" fill="url(#paint9_linear_2038_4185)" stroke="#FACC15" opacity="0"><animateTransform attributeName="transform" type="translate" values="0 0;8 -4" dur="3s" begin="1.4s" repeatCount="indefinite" calcMode="spline" keySplines=".42 0 .58 1"/><animate attributeName="opacity" values="0;1;1;0" dur="3s" begin="1.4s" repeatCount="indefinite" keyTimes="0;0.2;0.8;1"/></path>
<path id="Pollen 2" d="M48 38.5C48.8284 38.5 49.5 39.1716 49.5 40C49.5 40.8284 48.8284 41.5 48 41.5C47.1716 41.5 46.5 40.8284 46.5 40C46.5 39.1716 47.1716 38.5 48 38.5Z" fill="url(#paint10_linear_2038_4185)" stroke="#FACC15" opacity="0"><animateTransform attributeName="transform" type="translate" values="0 0;8 -4" dur="3s" begin="1.75s" repeatCount="indefinite" calcMode="spline" keySplines=".42 0 .58 1"/><animate attributeName="opacity" values="0;1;1;0" dur="3s" begin="1.75s" repeatCount="indefinite" keyTimes="0;0.2;0.8;1"/></path>
<path id="Pollen 1" d="M38 47.5C39.3807 47.5 40.5 48.6193 40.5 50C40.5 51.3807 39.3807 52.5 38 52.5C36.6193 52.5 35.5 51.3807 35.5 50C35.5 48.6193 36.6193 47.5 38 47.5Z" fill="url(#paint11_linear_2038_4185)" stroke="#FACC15" opacity="0"><animateTransform attributeName="transform" type="translate" values="0 0;8 -4" dur="3s" begin="2.0999999999999996s" repeatCount="indefinite" calcMode="spline" keySplines=".42 0 .58 1"/><animate attributeName="opacity" values="0;1;1;0" dur="3s" begin="2.0999999999999996s" repeatCount="indefinite" keyTimes="0;0.2;0.8;1"/></path>
</g>
</g>
<defs>
<linearGradient id="paint0_linear_2038_4185" x1="67.1586" y1="37" x2="67.1586" y2="90.9997" gradientUnits="userSpaceOnUse">
<stop stop-color="#22C55E"/>
<stop offset="1" stop-color="#16A34A"/>
</linearGradient>
<linearGradient id="paint1_linear_2038_4185" x1="78.6596" y1="61.2354" x2="78.6596" y2="91.0003" gradientUnits="userSpaceOnUse">
<stop stop-color="#22C55E"/>
<stop offset="1" stop-color="#16A34A"/>
</linearGradient>
<linearGradient id="paint2_linear_2038_4185" x1="70.4145" y1="46.9341" x2="70.4145" y2="90.9987" gradientUnits="userSpaceOnUse">
<stop stop-color="#22C55E"/>
<stop offset="1" stop-color="#16A34A"/>
</linearGradient>
<linearGradient id="paint3_linear_2038_4185" x1="51.6319" y1="53.3877" x2="51.6319" y2="90.9977" gradientUnits="userSpaceOnUse">
<stop stop-color="#22C55E"/>
<stop offset="1" stop-color="#16A34A"/>
</linearGradient>
<linearGradient id="paint4_linear_2038_4185" x1="51.0289" y1="70.0317" x2="51.0289" y2="90.9988" gradientUnits="userSpaceOnUse">
<stop stop-color="#22C55E"/>
<stop offset="1" stop-color="#16A34A"/>
</linearGradient>
<linearGradient id="paint5_linear_2038_4185" x1="90" y1="47.5132" x2="90" y2="51.4605" gradientUnits="userSpaceOnUse">
<stop stop-color="#FDE047"/>
<stop offset="1" stop-color="#FACC15"/>
</linearGradient>
<linearGradient id="paint6_linear_2038_4185" x1="80" y1="38.3421" x2="80" y2="40.9737" gradientUnits="userSpaceOnUse">
<stop stop-color="#FDE047"/>
<stop offset="1" stop-color="#FACC15"/>
</linearGradient>
<linearGradient id="paint7_linear_2038_4185" x1="74" y1="44.6842" x2="74" y2="49.9474" gradientUnits="userSpaceOnUse">
<stop stop-color="#FDE047"/>
<stop offset="1" stop-color="#FACC15"/>
</linearGradient>
<linearGradient id="paint8_linear_2038_4185" x1="64" y1="35.5132" x2="64" y2="39.4605" gradientUnits="userSpaceOnUse">
<stop stop-color="#FDE047"/>
<stop offset="1" stop-color="#FACC15"/>
</linearGradient>
<linearGradient id="paint9_linear_2038_4185" x1="54" y1="44.6842" x2="54" y2="49.9474" gradientUnits="userSpaceOnUse">
<stop stop-color="#FDE047"/>
<stop offset="1" stop-color="#FACC15"/>
</linearGradient>
<linearGradient id="paint10_linear_2038_4185" x1="48" y1="38.3421" x2="48" y2="40.9737" gradientUnits="userSpaceOnUse">
<stop stop-color="#FDE047"/>
<stop offset="1" stop-color="#FACC15"/>
</linearGradient>
<linearGradient id="paint11_linear_2038_4185" x1="38" y1="47.5132" x2="38" y2="51.4605" gradientUnits="userSpaceOnUse">
<stop stop-color="#FDE047"/>
<stop offset="1" stop-color="#FACC15"/>
</linearGradient>
<clipPath id="clip0_2038_4185">
<rect width="128" height="128" fill="white"/>
</clipPath>
</defs>
</svg>

<svg xmlns="http://www.w3.org/2000/svg" fill="none" viewBox="0 0 128 128"><g id="pollen-grass__pollen-grass" clip-path="url(#pollen-grass__clip0_3104_25700)"><g id="pollen-grass__Grass"><path id="pollen-grass__Vector" fill="url(#pollen-grass__paint0_linear_3104_25700)" stroke="#16a34a" stroke-linecap="round" stroke-miterlimit="10" d="M69.843 39.338c.695 1.296 1.231 3.25.53 5.865-.366 1.37-.794 2.852-1.238 4.387-.443 1.533-.904 3.12-1.334 4.694-.858 3.143-1.605 6.267-1.864 8.864v.005c-.412 4.528-.602 23.022-.64 27.347h-3.463c-.06-1.902-.093-8.072.397-15.233.545-7.963 1.73-17.063 4.2-22.884v-.001c2.628-6.214 3.311-10.08 3.317-12.422q-.001-.461-.032-.849.065.111.127.227Z"/><path id="pollen-grass__Vector_2" fill="url(#pollen-grass__paint1_linear_3104_25700)" stroke="#16a34a" stroke-linecap="round" stroke-miterlimit="10" d="M84.35 61.814c-1.697.898-3.85 2.696-6.293 6.204-2.358 3.385-3.628 8.118-4.267 12.48-.59 4.018-.65 7.782-.507 10.002H69.83c.1-4.038.822-13.51 5.072-21.195l.411-.743h-.01c2.645-4.414 5.715-6.045 8.127-6.586q.476-.107.92-.163Z"/><path id="pollen-grass__Vector_3" fill="url(#pollen-grass__paint2_linear_3104_25700)" stroke="#16a34a" stroke-linecap="round" stroke-miterlimit="10" d="M75.144 51.149c.055.486.104 1.005.138 1.554.205 3.267-.057 7.537-1.86 11.738l-.18.406c-1.709 3.778-2.684 9.219-3.286 14.227-.563 4.687-.808 9.081-.999 11.425h-3.44c.126-2.1.276-6.015.873-10.41.652-4.805 1.833-10.109 4.065-14.14h.001c2.701-4.904 3.924-9.656 4.472-13.182q.132-.86.216-1.618Z"/><path id="pollen-grass__Vector_4" fill="url(#pollen-grass__paint3_linear_3104_25700)" stroke="#16a34a" stroke-linecap="round" stroke-miterlimit="10" d="M44.803 55.72c1.577.733 2.971 1.555 4.248 2.513 2.312 1.737 4.262 3.937 6.224 6.907l.393.604c.944 1.492 1.833 3.658 2.642 6.137.808 2.472 1.53 5.225 2.146 7.869 1.094 4.688 1.84 8.923 2.196 10.748h-4.387c-1.084-6.378-1.768-12.805-3.735-19.132l-.198-.625c-2.24-7.248-5.754-11.7-8.73-14.344q-.408-.36-.8-.676Z"/><path id="pollen-grass__Vector_5" fill="url(#pollen-grass__paint4_linear_3104_25700)" stroke="#16a34a" stroke-linecap="round" stroke-miterlimit="10" d="M45.08 71.421c3.998 2.075 6.94 5.618 9.055 9.236 2.231 3.818 3.512 7.672 4.129 9.842h-3.672a39 39 0 0 0-3.322-10.306l-.003-.007-.004-.008c-1.443-2.764-3.388-5.388-4.964-7.314a60 60 0 0 0-1.219-1.443Z"/></g><g id="pollen-grass__Pollen"><path id="pollen-grass__Pollen 7" fill="url(#pollen-grass__paint5_linear_3104_25700)" stroke="#facc15" d="M90 47.5a2.5 2.5 0 1 1 0 5 2.5 2.5 0 0 1 0-5Z"><animateTransform attributeName="transform" begin="0s" calcMode="spline" dur="3s" keySplines=".42 0 .58 1" repeatCount="indefinite" type="translate" values="0 0;8 -4"/><animate attributeName="opacity" begin="0s" dur="3s" keyTimes="0;0.2;0.8;1" repeatCount="indefinite" values="0;1;1;0"/></path><path id="pollen-grass__Pollen 6" fill="url(#pollen-grass__paint6_linear_3104_25700)" stroke="#facc15" d="M80 38.5a1.5 1.5 0 1 1 0 3 1.5 1.5 0 0 1 0-3Z"><animateTransform attributeName="transform" begin="-2.65s" calcMode="spline" dur="3s" keySplines=".42 0 .58 1" repeatCount="indefinite" type="translate" values="0 0;8 -4"/><animate attributeName="opacity" begin="-2.65s" dur="3s" keyTimes="0;0.2;0.8;1" repeatCount="indefinite" values="0;1;1;0"/></path><path id="pollen-grass__Pollen 5" fill="url(#pollen-grass__paint7_linear_3104_25700)" stroke="#facc15" d="M74 44.5a3.5 3.5 0 1 1 0 7 3.5 3.5 0 0 1 0-7Z"><animateTransform attributeName="transform" begin="-2.3s" calcMode="spline" dur="3s" keySplines=".42 0 .58 1" repeatCount="indefinite" type="translate" values="0 0;8 -4"/><animate attributeName="opacity" begin="-2.3s" dur="3s" keyTimes="0;0.2;0.8;1" repeatCount="indefinite" values="0;1;1;0"/></path><path id="pollen-grass__Pollen 4" fill="url(#pollen-grass__paint8_linear_3104_25700)" stroke="#facc15" d="M64 35.5a2.5 2.5 0 1 1 0 5 2.5 2.5 0 0 1 0-5Z"><animateTransform attributeName="transform" begin="-1.9500000000000002s" calcMode="spline" dur="3s" keySplines=".42 0 .58 1" repeatCount="indefinite" type="translate" values="0 0;8 -4"/><animate attributeName="opacity" begin="-1.9500000000000002s" dur="3s" keyTimes="0;0.2;0.8;1" repeatCount="indefinite" values="0;1;1;0"/></path><path id="pollen-grass__Pollen 3" fill="url(#pollen-grass__paint9_linear_3104_25700)" stroke="#facc15" d="M54 44.5a3.5 3.5 0 1 1 0 7 3.5 3.5 0 0 1 0-7Z"><animateTransform attributeName="transform" begin="-1.6s" calcMode="spline" dur="3s" keySplines=".42 0 .58 1" repeatCount="indefinite" type="translate" values="0 0;8 -4"/><animate attributeName="opacity" begin="-1.6s" dur="3s" keyTimes="0;0.2;0.8;1" repeatCount="indefinite" values="0;1;1;0"/></path><path id="pollen-grass__Pollen 2" fill="url(#pollen-grass__paint10_linear_3104_25700)" stroke="#facc15" d="M48 38.5a1.5 1.5 0 1 1 0 3 1.5 1.5 0 0 1 0-3Z"><animateTransform attributeName="transform" begin="-1.25s" calcMode="spline" dur="3s" keySplines=".42 0 .58 1" repeatCount="indefinite" type="translate" values="0 0;8 -4"/><animate attributeName="opacity" begin="-1.25s" dur="3s" keyTimes="0;0.2;0.8;1" repeatCount="indefinite" values="0;1;1;0"/></path><path id="pollen-grass__Pollen 1" fill="url(#pollen-grass__paint11_linear_3104_25700)" stroke="#facc15" d="M38 47.5a2.5 2.5 0 1 1 0 5 2.5 2.5 0 0 1 0-5Z"><animateTransform attributeName="transform" begin="-0.9000000000000004s" calcMode="spline" dur="3s" keySplines=".42 0 .58 1" repeatCount="indefinite" type="translate" values="0 0;8 -4"/><animate attributeName="opacity" begin="-0.9000000000000004s" dur="3s" keyTimes="0;0.2;0.8;1" repeatCount="indefinite" values="0;1;1;0"/></path></g></g><defs><linearGradient id="pollen-grass__paint0_linear_3104_25700" x1="67.159" x2="67.159" y1="37" y2="91" gradientUnits="userSpaceOnUse"><stop stop-color="#22c55e"/><stop offset="1" stop-color="#16a34a"/></linearGradient><linearGradient id="pollen-grass__paint1_linear_3104_25700" x1="78.66" x2="78.66" y1="61.235" y2="91" gradientUnits="userSpaceOnUse"><stop stop-color="#22c55e"/><stop offset="1" stop-color="#16a34a"/></linearGradient><linearGradient id="pollen-grass__paint2_linear_3104_25700" x1="70.415" x2="70.415" y1="46.934" y2="90.999" gradientUnits="userSpaceOnUse"><stop stop-color="#22c55e"/><stop offset="1" stop-color="#16a34a"/></linearGradient><linearGradient id="pollen-grass__paint3_linear_3104_25700" x1="51.632" x2="51.632" y1="53.388" y2="90.998" gradientUnits="userSpaceOnUse"><stop stop-color="#22c55e"/><stop offset="1" stop-color="#16a34a"/></linearGradient><linearGradient id="pollen-grass__paint4_linear_3104_25700" x1="51.029" x2="51.029" y1="70.032" y2="90.999" gradientUnits="userSpaceOnUse"><stop stop-color="#22c55e"/><stop offset="1" stop-color="#16a34a"/></linearGradient><linearGradient id="pollen-grass__paint5_linear_3104_25700" x1="90" x2="90" y1="47.513" y2="51.461" gradientUnits="userSpaceOnUse"><stop stop-color="#fde047"/><stop offset="1" stop-color="#facc15"/></linearGradient><linearGradient id="pollen-grass__paint6_linear_3104_25700" x1="80" x2="80" y1="38.342" y2="40.974" gradientUnits="userSpaceOnUse"><stop stop-color="#fde047"/><stop offset="1" stop-color="#facc15"/></linearGradient><linearGradient id="pollen-grass__paint7_linear_3104_25700" x1="74" x2="74" y1="44.684" y2="49.947" gradientUnits="userSpaceOnUse"><stop stop-color="#fde047"/><stop offset="1" stop-color="#facc15"/></linearGradient><linearGradient id="pollen-grass__paint8_linear_3104_25700" x1="64" x2="64" y1="35.513" y2="39.461" gradientUnits="userSpaceOnUse"><stop stop-color="#fde047"/><stop offset="1" stop-color="#facc15"/></linearGradient><linearGradient id="pollen-grass__paint9_linear_3104_25700" x1="54" x2="54" y1="44.684" y2="49.947" gradientUnits="userSpaceOnUse"><stop stop-color="#fde047"/><stop offset="1" stop-color="#facc15"/></linearGradient><linearGradient id="pollen-grass__paint10_linear_3104_25700" x1="48" x2="48" y1="38.342" y2="40.974" gradientUnits="userSpaceOnUse"><stop stop-color="#fde047"/><stop offset="1" stop-color="#facc15"/></linearGradient><linearGradient id="pollen-grass__paint11_linear_3104_25700" x1="38" x2="38" y1="47.513" y2="51.461" gradientUnits="userSpaceOnUse"><stop stop-color="#fde047"/><stop offset="1" stop-color="#facc15"/></linearGradient><clipPath id="pollen-grass__clip0_3104_25700"><rect width="128" height="128" fill="#fff"/></clipPath></defs></svg>
